X: 3363
T: Mr Alexander Cunninghams.   Strathspey
%R: strathspey
B: Niel Gow & Sons "A Third Collection of Strathspey Reels, etc." v.3 p.36 #3
Z: 2022 John Chambers <jc:trillian.mit.edu>
N: The 2nd part has initial repeat but no final repeat; transcribed to not repeat 2nd part.
M: C|
L: 1/16
K: D
% - - - - - - - - - -
V: 1 staves=2
|:\
D3E GFED B,E3TE3F | D3E GFED FA3 A4 |\
(d3e/f/) A2F2 B2B,2TB,3A, | DDD2 DDD2 TF3EFA3 ::\
Td3f (gf)ed Tc2e2e2f2 | Td3ef2b2 a2d2f2(b2 |
a2)d2 A2F2 B2B,2TB,3A, | DDD2 DDD2 TF3EFA3 ||\
Td3f {g}f2ed Tc2e2e2f2 | Td3ef2b2 a2f2g2e2 |\
f2.d2.A2.F2 B2B,2E2C2 | DDD2 TF3A {c}d3DF"_Fine"A3 |]
% - - - - - - - - - -
% Voice 2 preserves the staff layout in the book.
V: 2 clef=bass middle=d
|: D4d2f2 g4a4 | f4a4 d2a2f2d2 | D4d4 G4A4 | D4d4 D4d4 :: d'4b2^g2 a4A4 |
[f6d8]g2 [f6d8]g2 | f4d4 G4A4 | d4D4 d4D4 || d'4b2^g2 a4=g4 | f4d2g2 [d4f4][A4e4] | D4d4 G4A4 | D4d4 f4d4 |]


